packages/icons/svg/Outline/flag.svg

<svg width="24" height="24" viewBox="0 0 24 24" fill="none" xmlns="http://www.w3.org/2000/svg">
<g id="Icon/Outline/flag">
<path id="Mask" fill-rule="evenodd" clip-rule="evenodd" d="M18 14.5859C17.604 14.7629 16.825 14.9999 15.5 14.9999C14.376 14.9999 13.399 14.6169 12.365 14.2119C11.203 13.7569 10.001 13.2859 8.5 13.2859C7.443 13.2859 6.624 13.4129 6 13.5839V11.9999V5.41591C6.396 5.23891 7.177 4.99991 8.5 4.99991C9.624 4.99991 10.601 5.38291 11.635 5.78791C12.797 6.24291 13.999 6.71391 15.5 6.71391C16.438 6.71391 17.276 6.61291 18 6.41391V14.5859ZM19.268 4.67991C18.806 4.34591 18.208 4.25091 17.669 4.42691C17.093 4.61391 16.343 4.71391 15.5 4.71391C14.376 4.71391 13.399 4.33091 12.365 3.92591C11.203 3.47091 10.001 2.99991 8.5 2.99991C5.613 2.99991 4.495 3.95191 4.3 4.14391C4.108 4.33091 4 4.58891 4 4.85691V11.9999V15.1429V19.9999C4 20.5529 4.447 20.9999 5 20.9999C5.553 20.9999 6 20.5529 6 19.9999V15.7019C6.395 15.5259 7.173 15.2859 8.5 15.2859C9.624 15.2859 10.601 15.6689 11.635 16.0739C12.797 16.5289 13.999 16.9999 15.5 16.9999C17.309 16.9999 18.423 16.6219 19.041 16.3049C19.633 15.9979 20 15.4019 20 14.7489V6.10591C20 5.54591 19.727 5.01291 19.268 4.67991Z" fill="#000000"/>
</g>
</svg>

<svg fill="none" height="24" viewBox="0 0 24 24" width="24" xmlns="http://www.w3.org/2000/svg"><path clip-rule="evenodd" d="m18 14.5861c-.396.177-1.175.414-2.5.414-1.124 0-2.101-.383-3.135-.788-1.162-.455-2.364-.926-3.86498-.926-1.057 0-1.876.127-2.5.298v-1.584-6.58403c.396-.177 1.177-.416 2.5-.416 1.124 0 2.10098.383 3.13498.788 1.162.455 2.364.926 3.865.926.938 0 1.776-.101 2.5-.3zm1.268-9.9061c-.462-.334-1.06-.429-1.599-.253-.576.187-1.326.287-2.169.287-1.124 0-2.101-.383-3.135-.788-1.162-.455-2.364-.926-3.865-.926-2.887 0-4.005.952-4.2 1.144-.192.187-.3.445-.3.713v7.143 3.143 4.857c0 .553.447 1 1 1s1-.447 1-1v-4.298c.395-.176 1.173-.416 2.5-.416 1.124 0 2.101.383 3.135.788 1.162.455 2.364.926 3.865.926 1.809 0 2.923-.378 3.541-.695.592-.307.959-.903.959-1.556v-8.643c0-.56-.273-1.093-.732-1.426z" fill="#6b7280" fill-rule="evenodd"/></svg>
